svg/u1f616.svg

<svg viewBox="0 0 128 128" xmlns="http://www.w3.org/2000/svg">
  <defs>
    <radialGradient id="face_1_" cx="63.6" cy="62.9" gradientUnits="userSpaceOnUse" r="56.9597">
      <stop offset="0.5" stop-color="#FDE030"/>
      <stop offset="0.92" stop-color="#F7C02B"/>
      <stop offset="1" stop-color="#F4A223"/>
    </radialGradient>
  </defs>
  <path id="face" d="M63.6,118.8 C35.7,118.8 5.6,101.3 5.6,62.9 C5.6,24.5 35.7,7 63.6,7 C79.1,7 93.4,12.1 104,21.4 C115.5,31.6 121.6,46 121.6,62.9 C121.6,79.8 115.5,94.1 104,104.3 C93.4,113.6 79,118.8 63.6,118.8 Z" fill="url(#face_1_)"/>
  <path d="M111.49,29.67 C116.82,38.27 119.6,48.51 119.6,59.9 C119.6,76.8 113.5,91.1 102,101.3 C91.4,110.6 77,115.8 61.6,115.8 C43.54,115.8 24.6,108.45 13.42,92.86 C24.18,110.52 44.42,118.8 63.6,118.8 C79,118.8 93.4,113.6 104,104.3 C115.5,94.1 121.6,79.8 121.6,62.9 C121.6,50.16 118.13,38.84 111.49,29.67 Z" fill="#EB8F00"/>
  <path id="mouth" d="M41.501,88.648 L44.851,91.779 L51.617,85.227 Q52.776,84.104 54.39,84.1 Q56.003,84.096 57.168,85.212 L63.985,91.746 L70.717,85.227 Q71.876,84.104 73.49,84.1 Q75.103,84.096 76.268,85.212 L83.133,91.791 L86.597,88.549 Q87.807,87.417 89.463,87.472 Q91.119,87.527 92.251,88.737 Q93.383,89.947 93.328,91.603 Q93.273,93.259 92.063,94.391 L85.833,100.221 Q84.67,101.309 83.076,101.3 Q81.483,101.29 80.332,100.188 L73.515,93.654 L66.783,100.173 Q65.624,101.296 64.01,101.3 Q62.397,101.304 61.232,100.188 L54.415,93.654 L47.683,100.173 Q46.534,101.286 44.935,101.3 Q43.337,101.314 42.169,100.222 L36.039,94.492 Q34.828,93.361 34.772,91.705 Q34.716,90.049 35.848,88.839 Q36.979,87.628 38.635,87.572 Q40.291,87.516 41.501,88.648 Z" fill="#35220B"/>
  <path d="M32.2,69.1 L44.4,66.7 L31.9,61.5 C31.79,61.39 31.65,61.33 31.5,61.3 C28.9,59.7 28.4,56.4 30.8,54.4 C32.81,52.85 35.57,52.73 37.7,54.1 C42.7,57.1 54.4,64.3 59,67.1 C59.51,67.32 59.74,67.91 59.52,68.41 C59.39,68.71 59.12,68.93 58.8,69 L35.9,77.6 C35.7,77.7 35.6,77.7 35.4,77.8 C32.4,78.6 29.1,76.9 28.6,74 C28.1,71.8 29.8,69.7 32.2,69.1 Z" fill="#422B0D"/>
  <path d="M95.8,68.8 L83.6,66.4 L96.2,61.2 C96.31,61.09 96.45,61.03 96.6,61 C99.2,59.4 99.7,56.1 97.3,54.1 C95.29,52.55 92.53,52.43 90.4,53.8 C85.4,56.8 73.7,64 69.1,66.8 C68.59,67.02 68.36,67.61 68.58,68.11 C68.71,68.41 68.98,68.63 69.3,68.7 L92.2,77.3 C92.4,77.4 92.5,77.4 92.7,77.5 C95.7,78.3 99,76.6 99.5,73.7 C99.9,71.5 98.2,69.5 95.8,68.8 Z" fill="#422B0D"/>
</svg>

<svg viewBox="0 0 128 128" xmlns="http://www.w3.org/2000/svg">
  <g id="gold">
    <radialGradient id="face_1_" cx="63.6" cy="1992.9" gradientTransform="matrix(1 0 0 1 0 -1930)" gradientUnits="userSpaceOnUse" r="56.9597">
      <stop offset="0.5" stop-color="#FDE030"/>
      <stop offset="0.92" stop-color="#F7C02B"/>
      <stop offset="1" stop-color="#F4A223"/>
    </radialGradient>
    <path id="face" d="M63.6,118.8c-27.9,0-58-17.5-58-55.9S35.7,7,63.6,7c15.5,0,29.8,5.1,40.4,14.4 c11.5,10.2,17.6,24.6,17.6,41.5s-6.1,31.2-17.6,41.4C93.4,113.6,79,118.8,63.6,118.8z" fill="url(#face_1_)"/>
    <path d="M111.49,29.67c5.33,8.6,8.11,18.84,8.11,30.23c0,16.9-6.1,31.2-17.6,41.4 c-10.6,9.3-25,14.5-40.4,14.5c-18.06,0-37-7.35-48.18-22.94c10.76,17.66,31,25.94,50.18,25.94c15.4,0,29.8-5.2,40.4-14.5 c11.5-10.2,17.6-24.5,17.6-41.4C121.6,50.16,118.13,38.84,111.49,29.67z" fill="#EB8F00"/>
  </g>
  <g id="facial_expressions">
    <g id="confounded-face">
      <polyline id="mouth" fill="none" points=" 38.77,91.57 44.9,97.3 54.4,88.1 64,97.3 73.5,88.1 83.1,97.3 89.33,91.47 " stroke="#35220B" stroke-linecap="round" stroke-linejoin="round" stroke-width="8"/>
      <g id="eyes">
        <path d="M32.2,69.1l12.2-2.4l-12.5-5.2c-0.11-0.11-0.25-0.17-0.4-0.2c-2.6-1.6-3.1-4.9-0.7-6.9 c2.01-1.55,4.77-1.67,6.9-0.3c5,3,16.7,10.2,21.3,13c0.51,0.22,0.74,0.81,0.52,1.31c-0.13,0.3-0.4,0.52-0.72,0.59l-22.9,8.6 c-0.2,0.1-0.3,0.1-0.5,0.2c-3,0.8-6.3-0.9-6.8-3.8C28.1,71.8,29.8,69.7,32.2,69.1z" fill="#422B0D"/>
        <path d="M95.8,68.8l-12.2-2.4l12.6-5.2c0.11-0.11,0.25-0.17,0.4-0.2c2.6-1.6,3.1-4.9,0.7-6.9 c-2.01-1.55-4.77-1.67-6.9-0.3c-5,3-16.7,10.2-21.3,13c-0.51,0.22-0.74,0.81-0.52,1.31c0.13,0.3,0.4,0.52,0.72,0.59l22.9,8.6 c0.2,0.1,0.3,0.1,0.5,0.2c3,0.8,6.3-0.9,6.8-3.8C99.9,71.5,98.2,69.5,95.8,68.8z" fill="#422B0D"/>
      </g>
    </g>
  </g>
</svg>
